symbols/web/phonelink_erase/materialsymbolsrounded/phonelink_erase_wght600grad200_20px.svg

<svg xmlns="http://www.w3.org/2000/svg" height="20" width="20"><path d="M11.562 12.896q-.312-.313-.312-.74t.292-.739L12.979 10l-1.458-1.438q-.292-.312-.281-.739.01-.427.322-.74.292-.312.719-.312t.74.312l1.437 1.438 1.438-1.438q.312-.312.739-.312t.74.312q.292.313.292.74t-.292.739L15.917 10l1.458 1.438q.292.312.292.729 0 .416-.292.729-.313.312-.74.312t-.739-.312l-1.438-1.417L13 12.917q-.312.312-.729.302-.417-.011-.709-.323Zm1.563 3.708H5.208v.75h7.917Zm0-13.208v-.75H5.208v.75ZM5.208 20q-1.104 0-1.875-.771-.771-.771-.771-1.875V2.646q0-1.104.771-1.875Q4.104 0 5.208 0h7.917Q14.229 0 15 .771q.771.771.771 1.875v3.062h-2.646V5.5H5.208v9h7.917v-.208h2.646v3.062q0 1.104-.771 1.875-.771.771-1.875.771Zm0-17.354v.75-.75Zm0 14.708v-.75.75Z"/></svg>

<svg xmlns="http://www.w3.org/2000/svg" height="20" width="20"><path d="M11.562 12.896Q11.25 12.583 11.25 12.156Q11.25 11.729 11.542 11.417L12.979 10L11.521 8.562Q11.229 8.25 11.24 7.823Q11.25 7.396 11.562 7.083Q11.854 6.771 12.281 6.771Q12.708 6.771 13.021 7.083L14.458 8.521L15.896 7.083Q16.208 6.771 16.635 6.771Q17.062 6.771 17.375 7.083Q17.667 7.396 17.667 7.823Q17.667 8.25 17.375 8.562L15.917 10L17.375 11.438Q17.667 11.75 17.667 12.167Q17.667 12.583 17.375 12.896Q17.062 13.208 16.635 13.208Q16.208 13.208 15.896 12.896L14.458 11.479L13 12.917Q12.688 13.229 12.271 13.219Q11.854 13.208 11.562 12.896ZM13.125 16.604H5.208V17.354Q5.208 17.354 5.208 17.354Q5.208 17.354 5.208 17.354H13.125Q13.125 17.354 13.125 17.354Q13.125 17.354 13.125 17.354ZM13.125 3.396V2.646Q13.125 2.646 13.125 2.646Q13.125 2.646 13.125 2.646H5.208Q5.208 2.646 5.208 2.646Q5.208 2.646 5.208 2.646V3.396ZM5.208 20Q4.104 20 3.333 19.229Q2.562 18.458 2.562 17.354V2.646Q2.562 1.542 3.333 0.771Q4.104 0 5.208 0H13.125Q14.229 0 15 0.771Q15.771 1.542 15.771 2.646V5.708H13.125V5.5H5.208V14.5H13.125V14.292H15.771V17.354Q15.771 18.458 15 19.229Q14.229 20 13.125 20ZM5.208 2.646Q5.208 2.646 5.208 2.646Q5.208 2.646 5.208 2.646V3.396V2.646Q5.208 2.646 5.208 2.646Q5.208 2.646 5.208 2.646ZM5.208 17.354Q5.208 17.354 5.208 17.354Q5.208 17.354 5.208 17.354V16.604V17.354Q5.208 17.354 5.208 17.354Q5.208 17.354 5.208 17.354Z"/></svg>
